public/images/flags/FI.svg

<svg width="21" height="15" viewBox="0 0 21 15" fill="none" xmlns="http://www.w3.org/2000/svg">
<path d="M2 0H19C19.5304 0 20.0391 0.210712 20.4142 0.585785C20.7893 0.960858 21 1.46957 21 2V13C21 13.5304 20.7893 14.0391 20.4142 14.4142C20.0391 14.7893 19.5304 15 19 15H2C1.46957 15 0.960858 14.7893 0.585785 14.4142C0.210712 14.0391 0 13.5304 0 13V2C0 1.46957 0.210712 0.960858 0.585785 0.585785C0.960858 0.210712 1.46957 0 2 0Z" fill="#F6F9FC"/>
<path opacity="0.25" d="M19 15H2C1.46957 15 0.960858 14.7893 0.585785 14.4142C0.210712 14.0391 0 13.5304 0 13V2C0 1.46957 0.210712 0.960858 0.585785 0.585785C0.960858 0.210712 1.46957 0 2 0H19C19.5304 0 20.0391 0.210712 20.4142 0.585785C20.7893 0.960858 21 1.46957 21 2V13C21 13.5304 20.7893 14.0391 20.4142 14.4142C20.0391 14.7893 19.5304 15 19 15ZM20 2C20 1.73478 19.8946 1.48043 19.7071 1.29289C19.5196 1.10536 19.2652 1 19 1H2C1.73478 1 1.48044 1.10536 1.29291 1.29289C1.10537 1.48043 1 1.73478 1 2V13C1 13.2652 1.10537 13.5196 1.29291 13.7071C1.48044 13.8946 1.73478 14 2 14H19C19.2652 14 19.5196 13.8946 19.7071 13.7071C19.8946 13.5196 20 13.2652 20 13V2Z" fill="#8898AA"/>
<path d="M21 9H9V15H6V9H0V6H6V0H9V6H21V9Z" fill="#555ABF"/>
</svg>

<svg width="21" height="15" fill="none" xmlns="http://www.w3.org/2000/svg"><path d="M2 0h17a2 2 0 0 1 2 2v11a2 2 0 0 1-2 2H2a2 2 0 0 1-2-2V2a2 2 0 0 1 2-2z" fill="#F6F9FC"/><path opacity=".25" d="M19 15H2a2 2 0 0 1-2-2V2a2 2 0 0 1 2-2h17a2 2 0 0 1 2 2v11a2 2 0 0 1-2 2zm1-13a1 1 0 0 0-1-1H2a1 1 0 0 0-1 1v11a1 1 0 0 0 1 1h17a1 1 0 0 0 1-1V2z" fill="#8898AA"/><path d="M21 9H9v6H6V9H0V6h6V0h3v6h12v3z" fill="#555ABF"/></svg>
